X: 6
T: POLKA
M: 4/4
L: 1/8
Q:1/4=100
K:C
|:dBg^f/2e/2 dBba/2g/2|g^f^f3/2e/2 ede/2d/2e/2d/2|dBg^f/2e/2 dBba/2g/2|^
fde^f gg/2g/2gd/2d/2:|
g2=f2 ed/2c/2e/2c/2g/2c/2|ed/2c/2e/2c/2g/2c/2 ef/2c/2e/2f/2g/2a/2|g/2f/2
f/2e/2d2 dB/2c/2d/2B/2f/2B/2|dB/2c/2d/2B/2f/2B/2 dB/2c/2d/2e/2f/2g/2|
a/2f/2e/2d/2cc/2d/2 e/2c/2g/2c/2ec/2d/2|e/2c/2g/2c/2ec/2d/2 e/2c/2g/2c/2
e/2f/2g/2a/2|g/2f/2e/2d/2Bd/2e/2 fd/2e/2f/2c/2f/2a/2|gf/2g/2a/2f/2e/2d/2
 Bd/2a/2g/2f/2e/2d/2|
ce/2g/2c'2|
